app/dist/common/images/kansai-electric-power-co.svg

<svg height="18" viewBox="0 0 18 18" width="18" xmlns="http://www.w3.org/2000/svg"><path d="m0 0h18v18h-18z" fill="#f0f3fa"/><path d="m9 10.6c-.6 0-1.12-.28-1.43-.71l-.63-.9.63-.88c.31-.43.84-.71 1.43-.71.6 0 1.12.28 1.43.71l.63.89-.63.89c-.31.43-.84.71-1.43.71zm0-5.6c-1.5 0-2.83.73-3.6 1.82l-.86-1.2-1.54 2.17.86 1.21-.86 1.22 1.54 2.17.86-1.2a4.37 4.37 0 0 0 3.6 1.81c1.5 0 2.83-.73 3.6-1.83l.86 1.21 1.54-2.17-.86-1.21.86-1.2-1.54-2.18-.86 1.2a4.37 4.37 0 0 0 -3.6-1.82z" fill="#e60012"/></svg>

<!-- by TradingView --><svg xmlns="http://www.w3.org/2000/svg" width="18" height="18" viewBox="0 0 18 18"><path fill="#F0F3FA" d="M0 0h18v18H0z"/><path d="M9 10.6c-.6 0-1.12-.28-1.43-.71l-.63-.9.63-.88c.31-.43.84-.71 1.43-.71.6 0 1.12.28 1.43.71l.63.89-.63.89c-.31.43-.84.71-1.43.71ZM9 5c-1.5 0-2.83.73-3.6 1.82l-.86-1.2L3 7.79 3.86 9 3 10.22l1.54 2.17.86-1.2A4.37 4.37 0 0 0 9 13c1.5 0 2.83-.73 3.6-1.83l.86 1.21L15 10.21 14.14 9 15 7.8l-1.54-2.18-.86 1.2A4.37 4.37 0 0 0 9 5Z" fill="#E60012"/></svg>
